lib/functional/system&devices/monitor-play.svg

<svg xmlns="http://www.w3.org/2000/svg" fill="none" stroke="currentColor" aria-hidden="true" viewBox="0 0 32 32"><g id="Icon-MonitorPlay"><g clip-path="url(#clip0_9_184)"><g id="size=md (32px)"><g id="MonitorPlay"><path id="Vector" stroke-linecap="round" stroke-linejoin="round" stroke-width="2" d="M6 24L26 24C27.1046 24 28 23.1046 28 22L28 8C28 6.89543 27.1046 6 26 6L6 6C4.89543 6 4 6.89543 4 8L4 22C4 23.1046 4.89543 24 6 24Z"/><path id="Vector_2" stroke-linecap="round" stroke-linejoin="round" stroke-width="2" d="M20 28H12"/><path id="Vector_3" stroke-linecap="round" stroke-linejoin="round" stroke-width="2" d="M20 15L14 11V19L20 15Z"/></g></g></g></g><defs><clipPath id="clip0_9_184"><rect width="32" height="32" fill="white" rx="5"/></clipPath></defs></svg>

<svg xmlns="http://www.w3.org/2000/svg" fill="none" stroke="currentColor" aria-hidden="true" viewBox="0 0 32 32"><path stroke-linecap="round" stroke-linejoin="round" stroke-width="2" d="M6 24h20a2 2 0 0 0 2-2V8a2 2 0 0 0-2-2H6a2 2 0 0 0-2 2v14a2 2 0 0 0 2 2Zm14 4h-8"/><path stroke-linecap="round" stroke-linejoin="round" stroke-width="2" d="m20 15-6-4v8l6-4Z"/></svg>
